X: 22
T: Kilgary Mountain
O: Ireland
N: There's no such mountain, at least not in Ireland
Z: 2006 John Chambers <jc@trillian.mit.edu>
M: C
L: 1/8
K: C
G | "C"G2GA GEEG | "Am"A2AB AE2A | "F"AAAB ccBA |
w: A I was a walk-in' up-on Kil-ga-ry Moun-tain, I met with Col'-nel Pep-per, and his
| "C"GGcB "Am"AE2G | "C"G2GA GEEG | "Am"AAAB AEEE |
w: mon-ey he was count-in'. I drew up me pis-tols and I rat-tled up me sa-ber, say-ing
| "F"A2AB ccBA | "C"GGcB "Am"AE "Chorus"|| EE | "Dm"EDDE "G7"D4 |
w: "stand and de-liv-er, for I am a bold de-ceiv-er." Mush-a-ring-um du-rum dah,
| "C"zEED "Em"EFG2 | "F"zAAG ABcF | "C"EE"G7"DD "C"C2z |]
w: Whack fol the dad-dy oh, whack fol the dad-dy, oh. There's whis-ky in the jar.
%
W:The money in me hand, it looked so neat and jolly,
W:I took it right straight home, for to give to me Molly.
W:She swore that the loved me and she never would deceive me,
W:But the devil's in the women and they always lie so easy.
W:     Chorus
W:I went to me chambers to prepare myself for sumber,
W:To dream of gold and girls, and sure it is no wonder,
W:But Molly took me pistols and she filled them up with water,
W:And sent for Colonel Pepper to make ready for a slaughter
W:     Chorus
W:I woke next morning early, between six and seven,
W:With guards around me bed in both numbers odd and even.
W:I flew to me pistols, but alas, I was mistaken,
W:I couldn't shoot the water and prisoner I was taken.
W:     Chorus
W:They threw me into jail without a judge nor writing,
W:For robbing Colonel Pepper up on Kilgary Mountain.
W:But they didn't take me fists, so I knocked the jailer down,
W:And bit myself adieu to the jail in Sligo town.
W:     Chorus
W:Now some gets their delight in the boxing and the bowling,
W:And some gets their delight in the hurling and the rolling.
W:But I get my delight from the juice of the barley,
W:And courting pretty girls in the morning oh so early.
W:     Chorus

%%sep 1 1 500

